X: 21385
T: Kerry, The
R: polka
M: 2/4
K: Dmajor
|:e/|fA eA/e/|fA eA|dc/d/ ef|e/f/e/d/ BA|
fA eA/e/|fA eA|dc/d/ e/d/e/f/|ed d3/2:|
|:e/|fa fe|f/e/d BA|d/d/c/d/ ed/e/|fa ba|
f>a fe|f/e/d BA|dc/d/ e/d/e/f/|ed d3/2:|

